images/locate-app.svg

<svg width="39" height="48" viewBox="0 0 39 48" fill="none" xmlns="http://www.w3.org/2000/svg">
<path fill-rule="evenodd" clip-rule="evenodd" d="M24.7996 0H4.01069C1.80386 0.00279851 0.0156159 1.79104 0.0128174 3.99787V43.9765C0.0156159 46.1834 1.80386 47.9716 4.01069 47.9744H24V46.544C23.9962 42.9421 25.0625 39.4194 27.064 36.4246C27.2759 36.1071 27.2333 35.6848 26.964 35.4155L21.367 29.8185C20.8497 29.3006 20.5755 28.5884 20.6116 27.8573C20.648 27.1259 20.9916 26.4447 21.5573 25.9805C22.6469 25.1476 24.1879 25.2665 25.137 26.2562L33.0296 34.149L34.1602 33.0184L28.7975 27.6541V3.99787C28.7947 1.79104 27.0064 0.00279851 24.7996 0ZM27.1983 26.0549L26.2676 25.1242C24.7336 23.557 22.2665 23.3937 20.5395 24.7456C19.626 25.4964 19.0717 26.5986 19.0139 27.7802C18.9563 28.9616 19.4001 30.1123 20.2364 30.9491L25.3777 36.0906C23.4603 39.1803 22.4321 42.7392 22.4065 46.3753H4.01069C2.68619 46.3753 1.61196 45.301 1.61196 43.9765V41.5778H21.6013V39.9787H1.61196V6.39659H27.1983V26.0549ZM1.61196 4.79744H27.1983V3.99787C27.1983 2.67337 26.1241 1.59915 24.7996 1.59915H4.01069C2.68619 1.59915 1.61196 2.67337 1.61196 3.99787V4.79744ZM31.155 18.6005L30.0768 19.7791L34.9804 24.2743C36.1348 25.3363 36.7928 26.8327 36.7932 28.4009V47.9744H38.3923V28.4009C38.3904 26.3839 37.5444 24.4606 36.0592 23.0955L31.155 18.6005ZM4.81026 14.3923H8.00855C8.89188 14.3923 9.6077 13.6765 9.6077 12.7932V9.59488C9.6077 8.71155 8.89188 7.99574 8.00855 7.99574H4.81026C3.92693 7.99574 3.21111 8.71155 3.21111 9.59488V12.7932C3.21111 13.6765 3.92693 14.3923 4.81026 14.3923ZM4.81026 9.59488H8.00855V12.7932H4.81026V9.59488ZM16.0043 14.3923H12.806C11.9227 14.3923 11.2068 13.6765 11.2068 12.7932V9.59488C11.2068 8.71155 11.9227 7.99574 12.806 7.99574H16.0043C16.8876 7.99574 17.6034 8.71155 17.6034 9.59488V12.7932C17.6034 13.6765 16.8876 14.3923 16.0043 14.3923ZM16.0043 9.59488H12.806V12.7932H16.0043V9.59488ZM20.8017 14.3923H24C24.8834 14.3923 25.5992 13.6765 25.5992 12.7932V9.59488C25.5992 8.71155 24.8834 7.99574 24 7.99574H20.8017C19.9184 7.99574 19.2026 8.71155 19.2026 9.59488V12.7932C19.2026 13.6765 19.9184 14.3923 20.8017 14.3923ZM20.8017 9.59488H24V12.7932H20.8017V9.59488ZM8.00855 22.3881H4.81026C3.92693 22.3881 3.21111 21.6722 3.21111 20.7889V17.5906C3.21111 16.7073 3.92693 15.9915 4.81026 15.9915H8.00855C8.89188 15.9915 9.6077 16.7073 9.6077 17.5906V20.7889C9.6077 21.6722 8.89188 22.3881 8.00855 22.3881ZM8.00855 17.5906H4.81026V20.7889H8.00855V17.5906ZM4.81026 30.3838H8.00855C8.89188 30.3838 9.6077 29.668 9.6077 28.7846V25.5864C9.6077 24.703 8.89188 23.9872 8.00855 23.9872H4.81026C3.92693 23.9872 3.21111 24.703 3.21111 25.5864V28.7846C3.21111 29.668 3.92693 30.3838 4.81026 30.3838ZM4.81026 25.5864H8.00855V28.7846H4.81026V25.5864ZM16.0043 22.3881H12.806C11.9227 22.3881 11.2068 21.6722 11.2068 20.7889V17.5906C11.2068 16.7073 11.9227 15.9915 12.806 15.9915H16.0043C16.8876 15.9915 17.6034 16.7073 17.6034 17.5906V20.7889C17.6034 21.6722 16.8876 22.3881 16.0043 22.3881ZM16.0043 17.5906H12.806V20.7889H16.0043V17.5906ZM20.8017 22.3881H24C24.8834 22.3881 25.5992 21.6722 25.5992 20.7889V17.5906C25.5992 16.7073 24.8834 15.9915 24 15.9915H20.8017C19.9184 15.9915 19.2026 16.7073 19.2026 17.5906V20.7889C19.2026 21.6722 19.9184 22.3881 20.8017 22.3881ZM20.8017 17.5906H24V20.7889H20.8017V17.5906ZM16.0043 30.3838H12.806C11.9227 30.3838 11.2068 29.668 11.2068 28.7846V25.5864C11.2068 24.703 11.9227 23.9872 12.806 23.9872H16.0043C16.8876 23.9872 17.6034 24.703 17.6034 25.5864V28.7846C17.6034 29.668 16.8876 30.3838 16.0043 30.3838ZM16.0043 25.5864H12.806V28.7846H16.0043V25.5864ZM4.81026 38.3795H8.00855C8.89188 38.3795 9.6077 37.6637 9.6077 36.7804V33.5821C9.6077 32.6988 8.89188 31.9829 8.00855 31.9829H4.81026C3.92693 31.9829 3.21111 32.6988 3.21111 33.5821V36.7804C3.21111 37.6637 3.92693 38.3795 4.81026 38.3795ZM4.81026 33.5821H8.00855V36.7804H4.81026V33.5821ZM16.0043 38.3795H12.806C11.9227 38.3795 11.2068 37.6637 11.2068 36.7804V33.5821C11.2068 32.6988 11.9227 31.9829 12.806 31.9829H16.0043C16.8876 31.9829 17.6034 32.6988 17.6034 33.5821V36.7804C17.6034 37.6637 16.8876 38.3795 16.0043 38.3795ZM16.0043 33.5821H12.806V36.7804H16.0043V33.5821ZM15.2047 43.177H13.6056V44.7761H15.2047V43.177Z" fill="#495567"/>
</svg>

<svg width="39" height="48" fill="none" xmlns="http://www.w3.org/2000/svg"><path fill-rule="evenodd" clip-rule="evenodd" d="M24.8 0H4.01A4.003 4.003 0 00.014 3.998v39.979a4.003 4.003 0 003.998 3.997H24v-1.43a18.178 18.178 0 013.064-10.12.8.8 0 00-.1-1.008l-5.597-5.597a2.594 2.594 0 01.19-3.838 2.693 2.693 0 013.58.275l7.893 7.893 1.13-1.13-5.362-5.365V3.998A4.003 4.003 0 0024.8 0zm2.398 26.055l-.93-.93a4.303 4.303 0 00-5.729-.38 4.194 4.194 0 00-.303 6.204l5.142 5.142a19.77 19.77 0 00-2.971 10.284H4.01a2.4 2.4 0 01-2.399-2.398v-2.4h19.99V39.98H1.611V6.397h25.586v19.658zM1.612 4.797h25.586v-.8A2.4 2.4 0 0024.8 1.6H4.01a2.4 2.4 0 00-2.398 2.399v.8zM31.155 18.6l-1.078 1.18 4.903 4.494a5.61 5.61 0 011.813 4.127v19.573h1.6V28.401a7.214 7.214 0 00-2.334-5.305L31.155 18.6zM4.81 14.393H8.01c.883 0 1.599-.715 1.599-1.599V9.595c0-.883-.716-1.6-1.6-1.6H4.81c-.883 0-1.599.717-1.599 1.6v3.198c0 .884.716 1.6 1.6 1.6zm0-4.797H8.01v3.198H4.81V9.595zm11.194 4.797h-3.198c-.883 0-1.6-.715-1.6-1.599V9.595c0-.883.717-1.6 1.6-1.6h3.198c.884 0 1.6.717 1.6 1.6v3.198c0 .884-.716 1.6-1.6 1.6zm0-4.797h-3.198v3.198h3.198V9.595zm4.798 4.797H24c.883 0 1.6-.715 1.6-1.599V9.595c0-.883-.717-1.6-1.6-1.6h-3.198c-.884 0-1.6.717-1.6 1.6v3.198c0 .884.716 1.6 1.6 1.6zm0-4.797H24v3.198h-3.198V9.595zM8.009 22.388H4.81c-.883 0-1.599-.716-1.599-1.6v-3.197c0-.884.716-1.6 1.6-1.6h3.198c.883 0 1.599.716 1.599 1.6v3.198c0 .883-.716 1.6-1.6 1.6zm0-4.797H4.81v3.198H8.01V17.59zM4.81 30.384H8.01c.883 0 1.599-.716 1.599-1.6v-3.198c0-.883-.716-1.599-1.6-1.599H4.81c-.883 0-1.599.716-1.599 1.6v3.198c0 .883.716 1.599 1.6 1.599zm0-4.798H8.01v3.199H4.81v-3.199zm11.194-3.198h-3.198a1.6 1.6 0 01-1.6-1.6v-3.197c0-.884.717-1.6 1.6-1.6h3.198c.884 0 1.6.716 1.6 1.6v3.198c0 .883-.716 1.6-1.6 1.6zm0-4.797h-3.198v3.198h3.198V17.59zm4.798 4.797H24c.883 0 1.6-.716 1.6-1.6v-3.197c0-.884-.717-1.6-1.6-1.6h-3.198c-.884 0-1.6.716-1.6 1.6v3.198c0 .883.716 1.6 1.6 1.6zm0-4.797H24v3.198h-3.198V17.59zm-4.798 12.793h-3.198c-.883 0-1.6-.716-1.6-1.6v-3.198c0-.883.717-1.599 1.6-1.599h3.198c.884 0 1.6.716 1.6 1.6v3.198c0 .883-.716 1.599-1.6 1.599zm0-4.798h-3.198v3.199h3.198v-3.199zM4.81 38.38H8.01c.883 0 1.599-.716 1.599-1.6v-3.198c0-.883-.716-1.6-1.6-1.6H4.81c-.883 0-1.599.717-1.599 1.6v3.198c0 .884.716 1.6 1.6 1.6zm0-4.798H8.01v3.198H4.81v-3.198zm11.194 4.797h-3.198c-.883 0-1.6-.715-1.6-1.599v-3.198a1.6 1.6 0 011.6-1.6h3.198c.884 0 1.6.717 1.6 1.6v3.198c0 .884-.716 1.6-1.6 1.6zm0-4.797h-3.198v3.198h3.198v-3.198zm-.8 9.595h-1.598v1.6h1.599v-1.6z" fill="#495567"/></svg>
